X:235
T: Abendreihen
N: A0282B
O: Europa, Mitteleuropa, Deutschland
N: Nik. Hermann: Historien von der Sindflut Leipzig 1563
R: Romanze, Ballade, Lied
M: 4/4
L: 1/4
K: F
 |  |  | A2AA | c2B2 | AGFB | A2
B2 | AGFE | D2C2 | G2G2 | A2
B2 | AGFE | D2C2 | G2A2 | F4

